X: 140931
T: Ned Connell's Polka #2
S: "First Collection of Traditional Irish Music" (M.Mulvihill)
Z: B.Black
L: 1/8
M: 2/4
R: polka
K: Ador
EA AB|cd eg|G>F GA|GE ED|
EA AB|cd e>f|ge dB|A2 A2 :|
a>g ab|ag ef|g>f ga|ge de|
a>g ab|ag e>f|ge dB|A2 A2 :|
